src/images/svg/be-square/dev-and-operations.svg

<svg width="48" height="48" viewBox="0 0 48 48" fill="none" xmlns="http://www.w3.org/2000/svg">
<path d="M36.8223 16.5339C36.3173 13.9242 34.031 12.0091 31.3272 12.0091C31.0417 12.0091 30.7508 12.0328 30.4582 12.0797C28.7283 9.24515 25.6407 7.5 22.3092 7.5C17.6236 7.5 13.6735 10.8741 12.9023 15.4362C12.6555 15.4061 12.4086 15.3909 12.1637 15.3909C8.76503 15.3908 6 18.1558 6 21.5545C6 24.9531 8.76503 27.7182 12.1637 27.7182H16.6727C16.9639 27.7182 17.2001 27.4821 17.2001 27.1908C17.2001 26.8996 16.9639 26.6635 16.6727 26.6635H12.1637C9.34659 26.6635 7.05469 24.3716 7.05469 21.5545C7.05469 18.7374 9.34659 16.4456 12.1637 16.4456C12.5192 16.4456 12.8809 16.4844 13.2389 16.5612C13.3846 16.5924 13.5369 16.5605 13.6578 16.4732C13.7787 16.386 13.8571 16.2516 13.8734 16.1034C14.3487 11.7999 17.9752 8.55462 22.309 8.55462C25.3865 8.55462 28.2302 10.2292 29.7304 12.925C29.8444 13.1301 30.0804 13.235 30.309 13.1826C30.6533 13.1037 30.9959 13.0637 31.3271 13.0637C33.6472 13.0637 35.5886 14.801 35.8429 17.1049C35.8724 17.3723 36.0983 17.5744 36.367 17.5744C36.3681 17.5744 36.3692 17.5744 36.3703 17.5744C36.3842 17.5743 36.3981 17.5737 36.4127 17.5727C38.9133 17.5798 40.9452 19.6161 40.9452 22.1182C40.9452 24.6244 38.9062 26.6635 36.3999 26.6635H27.3455V24.2497C28 24.029 28.4727 23.4098 28.4727 22.6818V15.9181C28.4727 15.0058 27.7305 14.2636 26.8182 14.2636H20.0546C19.1422 14.2636 18.4 15.0058 18.4 15.9181V22.6818C18.4 23.4098 18.8728 24.029 19.5273 24.2497V26.6635H18.9274C18.6362 26.6635 18.4001 26.8996 18.4001 27.1908C18.4001 27.4821 18.6362 27.7182 18.9274 27.7182H19.5273V30.0453H15.9862C15.7655 29.3908 15.1462 28.9181 14.4182 28.9181C13.5058 28.9181 12.7636 29.6604 12.7636 30.5727C12.7636 31.485 13.5059 32.2272 14.4182 32.2272C15.1462 32.2272 15.7655 31.7545 15.9862 31.1H19.5273V33.5138C18.8728 33.7345 18.4 34.3537 18.4 35.0817C18.4 35.9941 19.1423 36.7363 20.0546 36.7363C20.9669 36.7363 21.7092 35.994 21.7092 35.0817C21.7092 34.3537 21.2364 33.7345 20.5819 33.5138V27.7182H22.9091V36.8956C22.2546 37.1163 21.7818 37.7355 21.7818 38.4635C21.7818 39.3759 22.5241 40.1181 23.4364 40.1181C24.3487 40.1181 25.091 39.3758 25.091 38.4635C25.091 37.7355 24.6182 37.1163 23.9638 36.8956V27.7182H26.2909V33.5138C25.6364 33.7345 25.1636 34.3537 25.1636 35.0817C25.1636 35.9941 25.9059 36.7363 26.8182 36.7363C27.7305 36.7363 28.4728 35.994 28.4728 35.0817C28.4728 34.3537 28 33.7345 27.3456 33.5138V31.1H30.8866C31.1074 31.7545 31.7266 32.2272 32.4546 32.2272C33.367 32.2272 34.1093 31.485 34.1093 30.5727C34.1093 29.6604 33.367 28.9181 32.4546 28.9181C31.7266 28.9181 31.1074 29.3908 30.8866 30.0453H27.3456V27.7182H36.4C39.4879 27.7182 42 25.206 42 22.1182C41.9999 19.1723 39.7135 16.7505 36.8223 16.5339ZM14.4182 31.1726C14.0874 31.1726 13.8183 30.9034 13.8183 30.5727C13.8183 30.2419 14.0875 29.9727 14.4182 29.9727C14.749 29.9727 15.0182 30.2419 15.0182 30.5727C15.0182 30.9034 14.749 31.1726 14.4182 31.1726ZM20.6544 35.0817C20.6544 35.4125 20.3853 35.6816 20.0545 35.6816C19.7237 35.6816 19.4546 35.4125 19.4546 35.0817C19.4546 34.7509 19.7238 34.4818 20.0545 34.4818C20.3853 34.4818 20.6544 34.751 20.6544 35.0817ZM22.909 26.6635H20.5819V24.3364H22.909V26.6635ZM24.0362 38.4635C24.0362 38.7943 23.7671 39.0634 23.4363 39.0634C23.1055 39.0634 22.8364 38.7943 22.8364 38.4635C22.8364 38.1328 23.1056 37.8636 23.4363 37.8636C23.7671 37.8636 24.0362 38.1328 24.0362 38.4635ZM26.2908 26.6635H23.9637V24.3364H26.2908V26.6635ZM23.9636 23.2817V22.0819H25.6908C25.982 22.0819 26.2181 21.8458 26.2181 21.5545V19.3C26.2181 19.0087 25.982 18.7726 25.6908 18.7726C25.3995 18.7726 25.1634 19.0087 25.1634 19.3V21.0272H21.709V17.5728H25.6908C25.982 17.5728 26.2181 17.3367 26.2181 17.0455C26.2181 16.7542 25.982 16.5181 25.6908 16.5181H21.1817C20.8905 16.5181 20.6544 16.7542 20.6544 17.0455V21.5545C20.6544 21.8458 20.8905 22.0819 21.1817 22.0819H22.9089V23.2817H20.0544C19.7236 23.2817 19.4545 23.0125 19.4545 22.6818V15.9181C19.4545 15.5873 19.7238 15.3182 20.0545 15.3182H26.8181C27.1489 15.3182 27.418 15.5874 27.418 15.9181V22.6818C27.418 23.0126 27.1488 23.2817 26.8181 23.2817H23.9636ZM27.4181 35.0817C27.4181 35.4125 27.1489 35.6816 26.8182 35.6816C26.4873 35.6816 26.2183 35.4125 26.2183 35.0817C26.2183 34.7509 26.4874 34.4818 26.8182 34.4818C27.1489 34.4818 27.4181 34.751 27.4181 35.0817ZM32.4545 29.9727C32.7853 29.9727 33.0544 30.2418 33.0544 30.5726C33.0544 30.9033 32.7853 31.1725 32.4545 31.1725C32.1236 31.1725 31.8546 30.9033 31.8546 30.5726C31.8546 30.2418 32.1236 29.9727 32.4545 29.9727Z" fill="#FF444F"/>
</svg>

<svg xmlns="http://www.w3.org/2000/svg" width="48" height="48" fill="none"  xmlns:v="https://vecta.io/nano"><path d="M36.822 16.534a5.59 5.59 0 0 0-5.495-4.525c-.286 0-.576.024-.869.071-1.73-2.835-4.818-4.58-8.149-4.58-4.686 0-8.636 3.374-9.407 7.936-.247-.03-.494-.045-.739-.045C8.765 15.391 6 18.156 6 21.555s2.765 6.164 6.164 6.164h4.509a.53.53 0 0 0 .527-.527.53.53 0 0 0-.527-.527h-4.509c-2.817 0-5.109-2.292-5.109-5.109s2.292-5.109 5.109-5.109c.355 0 .717.039 1.075.116.146.031.298-.001.419-.088s.199-.222.216-.37c.475-4.304 4.102-7.549 8.436-7.549 3.078 0 5.921 1.675 7.421 4.37.114.205.35.31.579.258a4.57 4.57 0 0 1 1.018-.119c2.32 0 4.261 1.737 4.516 4.041.029.267.255.47.524.47a.7.7 0 0 0 .046-.002 4.55 4.55 0 0 1 4.532 4.546 4.55 4.55 0 0 1-4.545 4.545h-9.054V24.25c.654-.221 1.127-.84 1.127-1.568v-6.764c0-.912-.742-1.655-1.654-1.655h-6.764c-.912 0-1.655.742-1.655 1.655v6.764c0 .728.473 1.347 1.127 1.568v2.414h-.6c-.291 0-.527.236-.527.527s.236.527.527.527h.6v2.327h-3.541c-.221-.655-.84-1.127-1.568-1.127-.912 0-1.655.742-1.655 1.655s.742 1.655 1.655 1.655c.728 0 1.347-.473 1.568-1.127h3.541v2.414c-.654.221-1.127.84-1.127 1.568 0 .912.742 1.655 1.655 1.655s1.655-.742 1.655-1.655c0-.728-.473-1.347-1.127-1.568v-5.796h2.327v9.177c-.654.221-1.127.84-1.127 1.568 0 .912.742 1.655 1.655 1.655s1.655-.742 1.655-1.655c0-.728-.473-1.347-1.127-1.568v-9.177h2.327v5.796c-.655.221-1.127.84-1.127 1.568 0 .912.742 1.655 1.655 1.655s1.655-.742 1.655-1.655c0-.728-.473-1.347-1.127-1.568V31.1h3.541c.221.654.84 1.127 1.568 1.127.912 0 1.655-.742 1.655-1.655s-.742-1.655-1.655-1.655c-.728 0-1.347.473-1.568 1.127h-3.541v-2.327H36.4a5.61 5.61 0 0 0 5.6-5.6 5.61 5.61 0 0 0-5.178-5.584zM14.418 31.173a.6.6 0 0 1-.6-.6.6.6 0 0 1 .6-.6.6.6 0 0 1 .6.6.6.6 0 0 1-.6.6zm6.236 3.909a.6.6 0 0 1-.6.6.6.6 0 0 1-.6-.6.6.6 0 0 1 .6-.6.6.6 0 0 1 .6.6zm2.255-8.418h-2.327v-2.327h2.327v2.327zm1.127 11.8a.6.6 0 0 1-.6.6.6.6 0 0 1-.6-.6.6.6 0 0 1 .6-.6.6.6 0 0 1 .6.6zm2.255-11.8h-2.327v-2.327h2.327v2.327zm-2.327-3.382v-1.2h1.727c.291 0 .527-.236.527-.527V19.3c0-.291-.236-.527-.527-.527a.53.53 0 0 0-.527.527v1.727h-3.454v-3.454h3.982c.291 0 .527-.236.527-.527s-.236-.527-.527-.527h-4.509c-.291 0-.527.236-.527.527v4.509c0 .291.236.527.527.527h1.727v1.2h-2.854a.6.6 0 0 1-.6-.6v-6.764a.6.6 0 0 1 .6-.6h6.764a.6.6 0 0 1 .6.6v6.764a.6.6 0 0 1-.6.6h-2.855zm3.454 11.8a.6.6 0 0 1-.6.6.6.6 0 0 1-.6-.6.6.6 0 0 1 .6-.6.6.6 0 0 1 .6.6zm5.036-5.109a.6.6 0 0 1 .6.6.6.6 0 0 1-.6.6.6.6 0 0 1-.6-.6.6.6 0 0 1 .6-.6z" fill="#ff444f"/></svg>
